X:1
T:Title
T:Title
T:Composer
C:Composer
L:1/8
M:3/4
K:C
V:1 treble nm="Piano" snm="Pno."
V:1
 ^f6 | e6 | d6 | ^c6 | a2 _a=a ^f z | ^c'6- | ^c'6 | ^c'6- | ^c'6 | ^c'6- | ^c'4 z2 | %11
 ^C2 ^C^C ^C^C | ^c2 cc cc | ^f2 ^f^f ^f^f | a2 _a=a ^f z | ^f2 ^f^f ed | ^c2 c^c BA | B2 BB ^cB | %18
 A2 ^GA ^F z | ^C_E F^F ^GA | B^c B2 A2 | A2 ^GA ^F z | a2 _a=a ^f z | ^f2 ^f^f ed | ^c2 c^c BA | %25
 B2 BB ^cB | A2 ^GA ^F z | ^C_E F^F ^GA | B^c B2 A2 | ^C_E F^F ^GA | ^F2 z4 | z6 | a6- | a6 | _a6 | %35
 a6 | ^f6- | ^f6 | ^f2 z4 | ^f2 z4 | ^F6 | z6 | z6 |] %43

